Papirus/24x24/mimetypes/application-x-hip.svg

<svg width="24" height="24" version="1.1" xmlns="http://www.w3.org/2000/svg">
 <path d="m5 2.5c-0.554 0-1 0.446-1 1v18c0 0.554 0.446 1 1 1h14c0.554 0 1-0.446 1-1v-13l-6-6z" style="opacity:.2"/>
 <path d="m5 2c-0.554 0-1 0.446-1 1v18c0 0.554 0.446 1 1 1h14c0.554 0 1-0.446 1-1v-13l-6-6z" style="fill:#f36128"/>
 <path d="m20 8.5-6-6v5c0 0.554 0.446 1 1 1z" style="opacity:.2"/>
 <path d="m20 8-6-6v5c0 0.554 0.446 1 1 1z" style="fill:#ebb9a1"/>
 <path d="m5 2c-0.554 0-1 0.446-1 1v0.5c0-0.554 0.446-1 1-1h9v-0.5z" style="fill:#ffffff;opacity:.2"/>
 <path d="m9.2447825 9.5000019c-2.1034632-0.0012981-3.8801696 0.6744101-5.2447825 1.7193641v2.045604c1.1153869-1.15543 2.7446143-1.961371 4.8229773-1.992815 0.138556-0.0021 0.2792738-6.72e-4 0.4218052 0.0042 3.2184195 0.111068 5.3600805 2.67347 5.3633315 5.334936 4e-3 2.939181-1.815384 4.946545-4.8827824 4.908395-2.0890096-0.0259-4.1245373-1.452778-4.0725106-3.623491 0.041188-1.723617 1.2636274-3.117673 3.2066722-3.163693 1.5705518-0.03716 2.2032328 1.044957 2.2032328 1.714613 0 0.634878-0.376153 1.453262-1.3003475 1.650209-0.7464344 0.159071-1.8024084-0.622291-1.005028-1.688218-0.8150825-0.03701-1.5258705 0.477408-1.5681427 1.388372-0.081652 1.766549 1.7527126 2.452475 2.9251162 2.264682 2.149708-0.34419 2.946516-1.740581 2.936761-3.637216-0.01049-1.984498-1.810881-3.739998-4.1444888-3.763386-1.8678969-0.018535-4.0976566 1.050417-4.9065962 3.38174v3.571758c0.3395057 0.882512 0.947791 1.725836 1.7885469 2.384944 1.2114385-0.0046 7.2114091-0.0046 8.3002151-2e-3 1.557697-1.15814 2.516302-3.02353 2.517238-5.397242 0.0011-3.959368-2.858033-7.0980884-7.3612175-7.1007561z" style="opacity:.2"/>
 <path d="m9.244808 9.0000019c-2.1034734-0.0012985-3.8801885 0.6746562-5.244808 1.7199901v2.046349c1.1153923-1.15585 2.7446277-1.962085 4.8230008-1.99354 0.1385566-0.0021 0.2792751-6.73e-4 0.4218072 0.0042 3.218435 0.111109 5.360107 2.674444 5.363358 5.336879 4e-3 2.940252-1.815393 4.948347-4.8828066 4.910183-2.0890197-0.02591-4.1245573-1.453307-4.0725304-3.624811 0.041188-1.724245 1.2636336-3.118808 3.2066878-3.164845 1.5705592-0.03717 2.2032432 1.045338 2.2032432 1.715237 0 0.63511-0.376154 1.453792-1.3003535 1.65081-0.746438 0.159129-1.8024171-0.622517-1.0050329-1.688832-0.8150864-0.03702-1.5258779 0.477581-1.5681503 1.388877-0.081652 1.767193 1.7527211 2.453369 2.9251307 2.265507 2.149718-0.344315 2.94653-1.741215 2.936775-3.638541-0.01049-1.985219-1.81089-3.741359-4.1445089-3.764755-1.867906-0.018542-4.0976766 1.050799-4.9066201 3.382971v3.573059c0.4321097 1.123632 1.2996189 2.183758 2.5276678 2.88126h6.7753822c2.014954-1.076318 3.301926-3.145095 3.303011-5.896656 0.0011-3.96081-2.858047-7.1006734-7.361253-7.1033421z" style="fill:#e4e4e4"/>
</svg>

<svg xmlns="http://www.w3.org/2000/svg" width="24" height="24" version="1.1">
 <path style="opacity:0.2" d="m5 2.5c-0.554 0-1 0.446-1 1v18c0 0.554 0.446 1 1 1h14c0.554 0 1-0.446 1-1v-13l-6-6z"/>
 <path style="fill:#f36128" d="m5 2c-0.554 0-1 0.446-1 1v18c0 0.554 0.446 1 1 1h14c0.554 0 1-0.446 1-1v-13l-6-6z"/>
 <path style="opacity:0.2" d="m20 8.5-6-6v5c0 0.554 0.446 1 1 1z"/>
 <path style="fill:#ebb9a1" d="m20 8-6-6v5c0 0.554 0.446 1 1 1z"/>
 <path style="fill:#ffffff;opacity:0.2" d="m5 2c-0.554 0-1 0.446-1 1v0.5c0-0.554 0.446-1 1-1h9v-0.5z"/>
 <path style="opacity:0.2" d="M 9.2448,9.5 C 7.1413,9.4987 5.3646,10.174 4,11.219 V 13.265 C 5.1154,12.11 6.7446,11.304 8.823,11.272 8.9615,11.27 9.1023,11.271 9.2448,11.276 12.463,11.387 14.605,13.95 14.608,16.611 14.612,19.55 12.793,21.558 9.7253,21.52 7.6363,21.494 5.6008,20.067 5.6528,17.896 5.694,16.173 6.9164,14.779 8.8595,14.733 10.43,14.695 11.063,15.777 11.063,16.447 11.063,17.082 10.687,17.9 9.7624,18.097 9.0159,18.256 7.96,17.475 8.7574,16.409 7.9423,16.372 7.2315,16.887 7.1892,17.797 7.1076,19.564 8.9419,20.25 10.114,20.062 12.264,19.718 13.061,18.322 13.051,16.425 13.041,14.44 11.24,12.685 8.9066,12.662 7.0387,12.643 4.8089,13.712 4,16.043 V 19.615 C 4.3395,20.498 4.9478,21.341 5.7885,22 7,21.995 13,21.995 14.089,21.998 15.646,20.84 16.605,18.974 16.606,16.601 16.607,12.641 13.748,9.5027 9.2448,9.5 Z"/>
 <path style="fill:#e4e4e4" d="M 9.2448,9 C 7.1413,8.9987 5.3646,9.6747 4,10.72 V 12.766 C 5.1154,11.61 6.7446,10.804 8.823,10.773 8.9616,10.771 9.1023,10.772 9.2448,10.777 12.463,10.888 14.605,13.451 14.608,16.114 14.612,19.054 12.793,21.062 9.7254,21.024 7.6363,20.998 5.6008,19.571 5.6528,17.399 5.694,15.675 6.9165,14.28 8.8595,14.234 10.43,14.197 11.063,15.28 11.063,15.95 11.063,16.585 10.687,17.403 9.7624,17.6 9.016,17.76 7.96,16.978 8.7574,15.912 7.9423,15.875 7.2315,16.389 7.1892,17.3 7.1076,19.068 8.9419,19.754 10.114,19.566 12.264,19.222 13.061,17.825 13.051,15.927 13.041,13.942 11.24,12.186 8.9066,12.163 7.0387,12.144 4.8089,13.214 4,15.546 V 19.119 C 4.4321,20.242 5.2996,21.302 6.5277,22 H 13.303 C 15.318,20.924 16.605,18.855 16.606,16.103 16.607,12.143 13.748,9.0027 9.2448,9 Z"/>
</svg>
